src/assets/outline/Autonio.svg

<svg width="24" height="24" viewBox="0 0 24 24"  xmlns="http://www.w3.org/2000/svg">
<path d="M12 22.75C6.07 22.75 1.25 17.93 1.25 12C1.25 6.07 6.07 1.25 12 1.25C17.93 1.25 22.75 6.07 22.75 12C22.75 17.93 17.93 22.75 12 22.75ZM12 2.75C6.9 2.75 2.75 6.9 2.75 12C2.75 17.1 6.9 21.25 12 21.25C17.1 21.25 21.25 17.1 21.25 12C21.25 6.9 17.1 2.75 12 2.75Z" />
<path d="M14.5699 10.8905H9.42987C9.15987 10.8905 8.9099 10.7405 8.7799 10.5105C8.6499 10.2705 8.64985 9.99054 8.78985 9.75054L11.3599 5.46055C11.6299 5.01055 12.3799 5.01055 12.6499 5.46055L15.2198 9.75054C15.3598 9.98054 15.3599 10.2705 15.2299 10.5105C15.0899 10.7505 14.8399 10.8905 14.5699 10.8905ZM10.7499 9.39054H13.2399L11.9899 7.31054L10.7499 9.39054Z" />
<path d="M11.1402 16.8903H6.00021C5.73021 16.8903 5.48019 16.7403 5.35019 16.5103C5.22019 16.2803 5.2202 15.9903 5.3602 15.7603L7.9302 11.4703C8.2002 11.0203 8.95018 11.0203 9.22018 11.4703L11.7902 15.7603C11.9302 15.9903 11.9302 16.2803 11.8002 16.5103C11.6602 16.7503 11.4102 16.8903 11.1402 16.8903ZM7.32022 15.3903H9.81021L8.56021 13.3103L7.32022 15.3903Z" />
<path d="M18.0001 16.8903H12.86C12.59 16.8903 12.3401 16.7403 12.2101 16.5103C12.0801 16.2803 12.08 15.9903 12.22 15.7603L14.79 11.4703C15.06 11.0203 15.8101 11.0203 16.0801 11.4703L18.6501 15.7603C18.7901 15.9903 18.79 16.2803 18.66 16.5103C18.52 16.7503 18.2701 16.8903 18.0001 16.8903ZM14.18 15.3903H16.67L15.42 13.3103L14.18 15.3903Z" />
</svg>

<?xml version="1.0" encoding="UTF-8"?>
<svg width="24" height="24" viewBox="0 0 24 24" xmlns="http://www.w3.org/2000/svg">
 <path d="m12 22.75c-5.93 0-10.75-4.82-10.75-10.75s4.82-10.75 10.75-10.75 10.75 4.82 10.75 10.75-4.82 10.75-10.75 10.75zm0-20c-5.1 0-9.25 4.15-9.25 9.25s4.15 9.25 9.25 9.25 9.25-4.15 9.25-9.25-4.15-9.25-9.25-9.25z"/>
 <path d="m14.57 10.89h-5.14c-0.27 0-0.51997-0.15-0.64997-0.38-0.13-0.24-0.13005-0.51996 0.00995-0.75996l2.57-4.29c0.27-0.45 1.02-0.45 1.29 0l2.5699 4.29c0.14 0.23 0.1401 0.51996 0.0101 0.75996-0.14 0.24-0.39 0.38-0.66 0.38zm-3.82-1.5h2.49l-1.25-2.08-1.24 2.08z"/>
 <path d="m11.14 16.89h-5.14c-0.27 0-0.52002-0.15-0.65002-0.38s-0.12999-0.52 0.01001-0.75l2.57-4.29c0.27-0.45 1.02-0.45 1.29 0l2.57 4.29c0.14 0.23 0.14 0.52 0.01 0.75-0.14 0.24-0.39 0.38-0.66 0.38zm-3.82-1.5h2.49l-1.25-2.08-1.24 2.08z"/>
 <path d="m18 16.89h-5.1401c-0.27 0-0.5199-0.15-0.6499-0.38s-0.1301-0.52 0.0099-0.75l2.57-4.29c0.27-0.45 1.0201-0.45 1.2901 0l2.57 4.29c0.14 0.23 0.1399 0.52 0.0099 0.75-0.14 0.24-0.3899 0.38-0.6599 0.38zm-3.8201-1.5h2.49l-1.25-2.08-1.24 2.08z"/>
</svg>
